modules/material-icons/icons/folder-star.svg

<?xml version="1.0" encoding="UTF-8" standalone="no"?>
<svg
   xmlns:dc="http://purl.org/dc/elements/1.1/"
   xmlns:cc="http://creativecommons.org/ns#"
   xmlns:rdf="http://www.w3.org/1999/02/22-rdf-syntax-ns#"
   xmlns:svg="http://www.w3.org/2000/svg"
   xmlns="http://www.w3.org/2000/svg"
   version="1.1"
   id="svg2"
   viewBox="0 0 24 24"
   height="24"
   width="24">
  <metadata
     id="metadata10">
    <rdf:RDF>
      <cc:Work
         rdf:about="">
        <dc:format>image/svg+xml</dc:format>
        <dc:type
           rdf:resource="http://purl.org/dc/dcmitype/StillImage" />
        <dc:title></dc:title>
      </cc:Work>
    </rdf:RDF>
  </metadata>
  <defs
     id="defs8" />
  <path
     id="path4"
     d="M 4 4 C 2.9 4 2.0097656 4.9 2.0097656 6 L 2 18 C 2 19.1 2.9 20 4 20 L 20 20 C 21.1 20 22 19.1 22 18 L 22 8 C 22 6.9 21.1 6 20 6 L 12 6 L 10 4 L 4 4 z M 14.953125 9.0058594 L 16.150391 11.798828 L 19.203125 12.060547 L 16.882812 14.054688 L 17.580078 17.005859 L 14.953125 15.478516 L 12.326172 17.005859 L 13.023438 14.046875 L 10.703125 12.054688 L 13.755859 11.792969 L 14.953125 9.0058594 z " />
</svg>

<svg xmlns="http://www.w3.org/2000/svg" height="24" width="24"><path d="M4 4c-1.1 0-1.99.9-1.99 2L2 18c0 1.1.9 2 2 2h16c1.1 0 2-.9 2-2V8c0-1.1-.9-2-2-2h-8l-2-2H4zm10.953 5.006l1.197 2.793 3.053.262-2.32 1.994.697 2.95-2.627-1.526-2.627 1.527.697-2.96-2.32-1.991 3.053-.262 1.197-2.787z"/></svg>
